X: 1
T: Brendan Ring's
M: 4/4
L: 1/8
R: reel
K: Dmaj
|: d2ce d~A3 | BGED CDEA | d2ce d~A3 | Bdce d3A |d2ce d~A3 |
BGED CDEG |1 ~F3A G~B3| A~e3 cdec :|2 ~F3A BGED | CDEC D2 z2 ||
|: ~e3d efed |cAAB cded | ~e3d efed | cAGE E~D3 |
~e3d efed |cAAB cded | ~e3d efed |1 cAGE E~D3 :|2 cAGE ED2B ||
|: A~D3 A2BG | A2AG FGAF | G2EG BEGB | ~B3A BcdB |
A~D3 A2Bd | A2AG FGAG | A2FA BGED | CDEC D3B :|
